!!!COM: Palestrina, Giovanni Perluigi da
!!!OPR: Missa In minoribus duplicibus
!!!OMD: Credo
!!!OTL: Crucifixus
**kern	**kern	**kern
*Itenor	*Icalto	*Icant
!Tenor	!Altus	!Cantus
*clefGv2	*clefG2	*clefG2
*k[]	*k[]	*k[]
*?:X	*?:X	*?:X
*M4/2	*M4/2	*M4/2
=103	=103	=103
0r	1d	0r
.	1c	.
=104	=104	=104
0r	1d	1a
.	1e	1g
=105	=105	=105
0r	4f	1a
.	4e	.
.	4f	.
.	4d	.
.	4g	1b
.	4f	.
.	4e	.
.	4d	.
=106	=106	=106
1A	1e	4cc
.	.	4b
.	.	4cc
.	.	4a
1G	2.g	2b
.	.	[2dd
.	4g	.
=107	=107	=107
1A	2f	2dd]
.	2e	2cc
1B	1d	4dd
.	.	4cc
.	.	4b
.	.	4a
=108	=108	=108
4c	1e	2g
4B	.	.
4c	.	2a
4A	.	.
2B	2d	1b
[2G	[2d	.
=109	=109	=109
2G]	2d]	2.e
2A	2c	.
.	.	4f
2B	2d	2.g
2c	2e	.
.	.	4a
=110	=110	=110
1B	4g	4b
.	4f	4cc
.	4e	1dd
.	4d	.
1A	1e	.
.	.	2cc#
=111	=111	=111
1D	0f#	2dd
.	.	1a
1d	.	.
.	.	[2d
=112	=112	=112
1G	0r	2d]
.	.	2e
2A	.	2f
2B	.	[2g
=113	=113	=113
2c	0r	2g]
2.d	.	2.f
4c	.	4e
[2c	.	4e
.	.	8d
.	.	8c
=114	=114	=114
2c]	1r	1d
2B	.	.
2c	2r	1c
[2A	[2e	.
=115	=115	=115
2A]	2e]	1a
1F	1A	.
.	.	1d
2G	2B	.
=116	=116	=116
2E	2c	2e
2D	1d	2f
2E	.	2g
2F	[2c	[2a
=117	=117	=117
1G	4c]	4a]
.	4B	4g
.	4B	1g
.	8A	.
.	8G	.
1D	1A	.
.	.	2f#
=118	=118	=118
2.E	2G	[0g
.	1c	.
4F	.	.
1G	.	.
.	2B	.
=119	=119	=119
2r	4c	1g]
.	4d	.
1c	4e	.
.	4f	.
.	2g	1r
2B	2d	.
=120	=120	=120
2c	2e	0r
2A	2c	.
2B	2.d	.
2G	.	.
.	4e	.
=121	=121	=121
2.A	2f	2r
.	4e	1cc
4B	4d	.
4c	4e	.
4d	4f	.
2e	2g	2b
=122	=122	=122
2A	2e	2cc
2d	2f#	2a
2G	[1g	2b
2G	.	2g
=123	=123	=123
0D	2g]	1a
.	2f#	.
.	2f#	1dd
.	4r	.
.	4d	.
=124	=124	=124
0A	2e	2cc
.	2f	2a
.	1e	1cc
=125	=125	=125
2r	2.d	2dd
2d	.	2d
.	8c	.
.	8B	.
2c	2A	2e
2A	2a	2f
=126	=126	=126
1c	2g	1e
.	2e	.
1d	1f	[1a
=127	=127	=127
2.A	2e	1a]
.	2.e	.
4B	.	.
2c	.	1r
.	4f	.
2B	2g	.
=128	=128	=128
2A	2f	0r
2.c	2e	.
.	4A	.
4B	4B	.
[2A	4c	.
.	4A	.
=129	=129	=129
2A]	1B	0r
2G#	.	.
2A	2A	.
2A	2c	.
=130	=130	=130
2B	2d	1g
2c	2e	.
4F	2f	1a
4G	.	.
4A	4e	.
4B	4d	.
=131	=131	=131
2c	2e	2g
2d	1d	2f
2.A	.	1e
.	2c#	.
4G	.	.
=132	=132	=132
4F	1d	0d
4D	.	.
2.G	.	.
.	2r	.
8F#	.	.
8E	.	.
2F#	2A	.
=133	=133	=133
2.G	2B	2r
.	2d	2d
4F	.	.
1E	2d	2e
.	2c	2g
=134	=134	=134
1D	1d	2g
.	.	2f#
1r	1e	1g
=135	=135	=135
0r	2r	1a
.	2d	.
.	2e	2r
.	2f	2a
=136	=136	=136
2r	2.e	2b
2A	.	2cc
.	8d	.
.	8c	.
2B	2d	2b
2c	2e	4a
.	.	4g
=137	=137	=137
2B	2g	2b
2A	2a	2cc
2B	2.g	2dd
2G	.	2b
.	4f	.
=138	=138	=138
0A	2e	2cc#
.	2d	1dd
.	1e	.
.	.	2cc#
=139	=139	=139
1D	2d	0dd
.	2a	.
2r	2g	.
2d	2f	.
=140	=140	=140
2c	2e	2r
2B	2d	2dd
2A	2e	2cc
2G	2e	2b
=141	=141	=141
2F	2f	2a
2G	4e	2g
.	4d	.
2A	2c	2f
[2G	2B	2g
=142	=142	=142
4G]	1A	1a
4F#	.	.
4F#	.	.
8E	.	.
8F#	.	.
2G	1B	2r
2G	.	2g
=143	=143	=143
2F#	1r	2a
2G	.	2b
4D	2r	[1a
4E	.	.
4F	2d	.
4G	.	.
=144	=144	=144
2A	2c#	1a]
4D	2d	.
4E	.	.
4F	4A	1a
4G	4B	.
4A	4c	.
4B	4d	.
=145	=145	=145
4c	4e	1g
4d	4f	.
2e	1g	.
2.d	.	1a
.	2f	.
4c	.	.
=146	=146	=146
2B	2d	1g
2c	1e	.
1d	.	1f
.	[2d	.
=147	=147	=147
0A	2d]	0e
.	4c	.
.	4B	.
.	1c	.
=148	=148	=148
1D	1f	1d
[1A	2.e	1c
.	4d	.
=149	=149	=149
2A]	2c	2.e
2A	2c	.
.	.	4f
2G	2B	2g
2F	2A	[2a
=150	=150	=150
1E	1B	2a]
.	.	2g#
4F	2r	[1a
4E	.	.
4D	[2d	.
4E	.	.
=151	=151	=151
4F	2d]	1a]
4G	.	.
2A	2c	.
2D	1d	2r
2F	.	[2a
=152	=152	=152
1E	1e	2a]
.	.	2g
1D	1f	1a
=153	=153	=153
1r	2e	1b
.	2d	.
1A	4c	1cc
.	4d	.
.	4e	.
.	4c	.
=154	=154	=154
2G	2d	2b
2A	2c	2a
1E	1B	1g
=155	=155	=155
2r	1A	2.a
1D	.	.
.	.	4g
.	2r	2f
2C#	[2A	2e
=156	=156	=156
2D	2A]	2f
2E	2G	2e
1F	1A	2r
.	.	[2a
=157	=157	=157
2E	1B	2a]
2E	.	2g
1A	2c	1a
.	[2e	.
=158	=158	=158
1G	2e]	1b
.	2d	.
2r	1e	[1cc
[2A	.	.
=159	=159	=159
2A]	2f	2cc]
2G	1g	1b
1A	.	.
.	[2f	[2a
=160	=160	=160
2B	2f]	2a]
2c	2e	2g
4F	[1f	[1a
4E	.	.
4D	.	.
4C	.	.
=161	=161	=161
2D	2f]	2a]
2E	2e	2g
2F	1d	1f
2G	.	.
=162	=162	=162
0A	0c#	0e
*-	*-	*-
!!!CDT: 1525/^1526/-1594/2/2
!!!OCY: Italia
!!!AGN: Mass (Paraphrase)
!!!AST: renaissance, vocal
!!!ASW: Gregorian Mass
!!!PWK: Masses, Book 7
!!!RNB: Cadence finals: C,G,A,D
!!!YOR: Le Opere Complete, v. 23, p. 182
!!!YOO: Rome, Italy: Fratelli Scalera
!!!END: 1992//
!!!EED: John Miller
!!!YEC: Copyright 2000, John Miller
!!!YEN: United States of America
!!!YEM: Rights to all derivative electronic formats reserved.
!!!YEM: Refer to licensing agreement for further details.
!!!YEM: This file must be accompanied by the licensing agreement.
!!!YEM: A copy of the licensing agreement may be found at http://www.music-cog.ohio-state.edu/HumdrumDatabases/Palestrina/license.txt
!!!EMD: converted to Humdrum by Bret Aarden
